X: 2093
T: Çektikçe Sineye
C: Selahattin İçli
O: Turkey
F: http://compmusic.upf.edu/node/140
N: mahur--sarki--aksak--cektikce_sineye--selahattin_icli
N: makam= mahur
N: form= sarki
N: usul= aksak = 9/8
M: 9/8
L: 1/16
K: C ^9/8f   
Q: 1/4=288
%%MIDI tuningsystem comma53
g4 g4 g4 e4 f2 | g16z2  | a4 a4 g2f2 e4 f2 | \
w:  Çek tik çe  sî ne  |  ye   |  et raf *  *  *  ta  | 
e16z2  | d4 g4 g4 a2g2 a2 | 
w:  sın   |  sen  cis mi  *  *  gü  | 
g8(3b2a2b2d'6  | c'4 c'4 b4 a2g2 a2 | \
w:  zel   |  sen  cis mi  *  *  gü  | 
g6 fedc BAG4z2  | g4 g4 g4 e4 f2 | 
w:  zel   SAZ  |  Çek tik çe  sî ne  | 
g16z2  | a4 a4 g2f2 e4 f2 | e16z2  | d4 g4 g4 a2g2 a2 | \
w:  ye   |  et raf *  *  *  ta  |  sın   |  sen  cis mi  *  *  gü  | 
g8(3b2a2b2d'6  | 
w:  zel   | 
c'4 c'4 b4 a2g2 a2 | g8d2 efg4z2  | a4 a4 c'4 b2a2 gf | \
w:  sen  cis mi  *  *  gü  |  zel   SAZ  |  Bir  dam la  *  *  su  | 
g2 fee12z2  | 
w:  ya   | 
a8 f4 e4 f2 | d16z2  | g2e6 d4 c2B2 c2 | \
w:  has ret  öl dü  |  ren   |  pı nar sın  *  *  gü  | 
A16z2  | c4 c4 B4 A2G2 A2 | G8d2 efg4z2  | 
w:  zel   |  sen  is mi  *  *  gü  |  zel   SAZ  | 
a4 a4 c'4 b2a2 gf | g2 fee12z2  | a8 f4 e4 f2 | \
w:  Bir  dam la  *  *  su  |  ya   |  has ret  öl dü  | 
d16z2  | g2e6 d4 c2B2 c2 | 
w:  ren   |  pı nar sın  *  *  gü  | 
A16z2  | c4 c4 B4 A2G2 A2 | G8d'c' _1/4b^ab4z2  | \
w:  zel   |  sen  is mi  *  *  gü  |  zel   SAZ  | 
_1/4b6b2 b8 b2 | d'16z2  | 
w:  Bir  öl mür  bo  |  yu   | 
c'2c'4_1/4b2 b2a2 a4 a2 | a16z2  | a4 a4 a2^ga _1/4b4 a2 | \
w:  ha yal  *  e *  *  di  |  len   |  bir  baş ka  *  *  *  gü  | 
a12d'6  | c'4 c'4 c'2_1/4b2 d'4 c'b | 
w:  zel   |  bir  baş ka  *  *  gü  | 
_1/4b16z2  | _1/4b6b2 b8 b2 | d'16z2  | \
w:  zel   |  Bir  ö mür  bo  |  yu   | 
c'2c'4_1/4b2 b2a2 a4 a2 | a16d2  | d4 g4 g4 a2g2 a2 | 
w:  ha yal  *  e *  *  di  |  len   |  bir  baş ka  *  *  gü  | 
g8(3b2a2b2d'4z2  | c'4 c'4 b4 a2g2 a2 | \
w:  zel   |  bir  baş ka  *  *  gü  | 
g8d2 efg4z2  | a4 a4 c'4 b2a2 gf | 
w:  zel  SAZ  |  Bir  dam la  *  *  su  | 
g2 fee12z2  | a8 f4 e4 f2 | d16z2  | g2e6 d4 c2B2 c2 | \
w:  ya   |  has ret  öl dü  |  ren   |  pı nar sın  *  *  gü  | 
A16z2  | c4 c4 B4 A2G2 A2 | 
w:  zel   |  sen  is mi  *  *  gü  | 
G8d2 efg4z2  | a4 a4 c'4 b2a2 gf | g2 fee12z2  | \
w:  zel   SAZ  |  Bir  dam la  *  *  su  |  ya   | 
a8 f4 e4 f2 | 
w:  has ret  öl dü  | 
d16z2  | g2e6 d4 c2B2 c2 | A16z2  | c4 c4 B4 A2G2 A2 | \
w:  ren   |  pı nar sın  *  *  gü  |  zel   |  sen  is mi  *  *  gü  | 
G8|
w:  zel    | 


